build/communication/PhoneSolid.svg

<svg xmlns="http://www.w3.org/2000/svg" fill="none" viewBox="0 0 24 24" focusable="false"><path d="M0 0H24V24H0z"/><path fill="#74767B" d="M9.81089 3.83172C9.18561 2.95522 7.96828 2.75136 7.09155 3.37632L5.88311 4.23773C5.22041 4.71013 4.66482 5.44773 4.62025 6.38075C4.54217 8.01538 4.87699 11.1656 7.64523 15.046C10.4 18.9075 13.2972 20.3107 14.893 20.8117C15.8144 21.101 16.7319 20.8201 17.4239 20.3268L18.5894 19.496C19.4666 18.8707 19.6705 17.6526 19.0449 16.7757L17.5867 14.7315C16.9612 13.8548 15.7435 13.6511 14.8668 14.2766L13.8545 14.9987C13.8523 15.0003 13.8487 15.0023 13.8487 15.0023C13.3271 14.6112 12.3164 13.7604 11.3754 12.4414C10.4344 11.1223 9.95896 9.88979 9.75885 9.26934C9.75885 9.26934 9.76195 9.26656 9.76414 9.26501L10.7764 8.54286C11.6531 7.91741 11.8568 6.69966 11.2314 5.82293L9.81089 3.83172Z"/></svg>

<svg xmlns="http://www.w3.org/2000/svg" fill="none" viewBox="0 0 24 24" focusable="false"><path fill="#74767B" d="M9.81 3.83a1.955 1.955 0 0 0-2.72-.46l-1.21.86c-.66.48-1.22 1.21-1.26 2.15-.08 1.63.25 4.78 3.02 8.66 2.76 3.86 5.65 5.27 7.25 5.77.92.29 1.84.01 2.53-.49l1.16-.83c.88-.62 1.09-1.84.46-2.72l-1.46-2.04a1.95 1.95 0 0 0-2.72-.46l-1.01.72c0 .01-.01.01-.01.01-.52-.39-1.53-1.24-2.47-2.56S9.95 9.88 9.75 9.26h.01l1.01-.72c.88-.63 1.08-1.85.46-2.72z"/></svg>
